X: 31094
T: Paddy Fahey's
R: reel
M: 4/4
K: Gmajor
gfdc BGDE|~=F2cF dFcF|DGBd gfga|gfde fgaf|
gfdc BGDE|~=F2cF dFcF|DGBd ~g2dc|BdcA BG~G2:|
~g2fa gbfa|gfga gfde|fd~d2 ad e/f/g|fgag fdef|
~g2fa gbfa|gfga gfde|fd~d2 ad e/f/g|fdcA G3z:|

